img/ico/delivery.svg

<svg width="70" height="70" viewBox="0 0 70 70" fill="none" xmlns="http://www.w3.org/2000/svg">
<path d="M22.5806 48.0103C20.0899 48.0103 18.0645 50.0398 18.0645 52.5355C18.0645 55.0312 20.0899 57.0608 22.5806 57.0608C25.0713 57.0608 27.0967 55.0312 27.0967 52.5355C27.0967 50.0398 25.0713 48.0103 22.5806 48.0103ZM22.5806 54.7981C21.3352 54.7981 20.3225 53.7834 20.3225 52.5355C20.3225 51.2876 21.3352 50.2729 22.5806 50.2729C23.8259 50.2729 24.8386 51.2876 24.8386 52.5355C24.8386 53.7834 23.8259 54.7981 22.5806 54.7981Z" fill="#DC3545"/>
<path d="M49.6773 48.0103C47.1866 48.0103 45.1611 50.0398 45.1611 52.5355C45.1611 55.0312 47.1866 57.0608 49.6773 57.0608C52.168 57.0608 54.1934 55.0312 54.1934 52.5355C54.1934 50.0398 52.168 48.0103 49.6773 48.0103ZM49.6773 54.7981C48.4319 54.7981 47.4192 53.7834 47.4192 52.5355C47.4192 51.2876 48.4319 50.2729 49.6773 50.2729C50.9226 50.2729 51.9353 51.2876 51.9353 52.5355C51.9353 53.7834 50.9226 54.7981 49.6773 54.7981Z" fill="#DC3545"/>
<path d="M67.7419 36.9051V27.8331C67.7419 26.7548 67.436 25.7042 66.8588 24.7955L60.3266 14.5098C59.7009 13.5254 58.633 12.9382 57.4698 12.9382H49.6774V8.41406H12.6669L10.9733 15.2019H14.4641L14.071 17.4646H4.51611V19.7272H13.6785L12.8923 24.2524H4.51611V26.5151H12.5004L11.7148 31.0403H4.51611V33.303H11.3217L10.3399 38.9595H8.03552L6.90649 48.01H6.77418C5.52882 48.01 4.51611 49.0248 4.51611 50.2727V54.7979C4.51611 56.0458 5.52882 57.0605 6.77418 57.0605H14.77C16.3346 59.7612 19.2454 61.5858 22.5806 61.5858C25.9159 61.5858 28.8267 59.7612 30.3912 57.0605H41.8679C43.433 59.7612 46.3432 61.5858 49.6785 61.5858C53.0138 61.5858 55.9246 59.7612 57.4891 57.0605H66.3984L69.9763 40.3284L70 40.0908C70 38.6181 69.0529 37.3736 67.7419 36.9051ZM57.4698 15.2019C57.8574 15.2019 58.2141 15.3975 58.4219 15.7256L64.9541 26.0118C65.3008 26.556 65.4839 27.1857 65.4839 27.8331V36.6969H61.1712L60.7191 38.9595H42.9032V16.3333C42.9032 15.709 43.4104 15.2019 44.0322 15.2019H57.4698ZM14.4299 10.6767H47.4193V12.9393H13.8654L14.4299 10.6767ZM16.7557 15.2019H40.853C40.7262 15.5571 40.6451 15.935 40.6451 16.3333V38.9595H12.6327L16.7557 15.2019ZM10.029 41.2221H60.2676L58.9131 48.01H57.4869C55.9218 45.3093 53.0116 43.4848 49.6763 43.4848C46.341 43.4848 43.4302 45.3093 41.8657 48.01H30.3912C28.8267 45.3093 25.9159 43.4848 22.5806 43.4848C19.2454 43.4848 16.3346 45.3093 14.77 48.01H9.18109L10.029 41.2221ZM6.77418 54.7979V50.2727H13.8455C13.6581 50.998 13.5484 51.7525 13.5484 52.5353C13.5484 53.318 13.6581 54.0726 13.8455 54.7979H6.77418ZM22.5806 59.3232C18.8446 59.3232 15.8064 56.2789 15.8064 52.5353C15.8064 48.7917 18.8446 45.7474 22.5806 45.7474C26.3167 45.7474 29.3548 48.7917 29.3548 52.5353C29.3548 56.2789 26.3167 59.3232 22.5806 59.3232ZM31.3157 54.7979C31.5032 54.0726 31.6129 53.318 31.6129 52.5353C31.6129 51.7525 31.5032 50.998 31.3157 50.2727H40.9434C40.7549 50.998 40.6451 51.7525 40.6451 52.5353C40.6451 53.318 40.7549 54.0726 40.9423 54.7979H31.3157ZM49.6774 59.3232C45.9413 59.3232 42.9032 56.2789 42.9032 52.5353C42.9032 48.7917 45.9413 45.7474 49.6774 45.7474C53.4135 45.7474 56.4516 48.7917 56.4516 52.5353C56.4516 56.2789 53.4135 59.3232 49.6774 59.3232ZM64.5704 54.7979H58.4114C58.6 54.0726 58.7097 53.318 58.7097 52.5353C58.7097 51.7525 58.6 50.998 58.4125 50.2727H60.7643L63.0224 38.9595H66.6129C67.2022 38.9595 67.6879 39.413 67.7375 39.9914L64.5704 54.7979Z" fill="#DC3545"/>
<path d="M63.2256 27.3219L57.0772 17.4648H45.1611V32.1719H63.2256V27.3219ZM60.9676 29.9093H47.4192V19.7275H55.8257L60.9676 27.9715V29.9093Z" fill="#DC3545"/>
<path d="M45.1611 34.4346H51.9353V36.6972H45.1611V34.4346Z" fill="#DC3545"/>
<path d="M0 17.4648H2.25806V19.7275H0V17.4648Z" fill="#DC3545"/>
<path d="M0 24.2524H2.25806V26.5151H0V24.2524Z" fill="#DC3545"/>
<path d="M0 31.0405H2.25806V33.3032H0V31.0405Z" fill="#DC3545"/>
</svg>

<svg width="70" height="70" viewBox="0 0 70 70" fill="currentColor" xmlns="http://www.w3.org/2000/svg" class="svg-icon">
    <path
        d="M22.58 48.01a4.525 4.525 0 0 0 0 9.05 4.525 4.525 0 0 0 0-9.05m0 6.788a2.263 2.263 0 0 1 0-4.525 2.263 2.263 0 0 1 0 4.525M49.677 48.01a4.525 4.525 0 0 0 0 9.05 4.525 4.525 0 0 0 0-9.05m0 6.788a2.263 2.263 0 0 1 0-4.525 2.263 2.263 0 0 1 0 4.525" />
    <path
        d="M67.742 36.905v-9.072a5.66 5.66 0 0 0-.883-3.037L60.327 14.51a3.37 3.37 0 0 0-2.857-1.572h-7.793V8.414h-37.01l-1.694 6.788h3.491l-.393 2.263H4.516v2.262h9.163l-.787 4.525H4.516v2.263H12.5l-.785 4.525H4.516v2.263h6.806l-.982 5.657H8.036l-1.13 9.05h-.132a2.263 2.263 0 0 0-2.258 2.263v4.525a2.263 2.263 0 0 0 2.258 2.262h7.996c1.565 2.701 4.475 4.526 7.81 4.526s6.247-1.825 7.811-4.526h11.477c1.565 2.701 4.475 4.526 7.81 4.526s6.247-1.825 7.811-4.526h8.91l3.577-16.732.024-.237a3.39 3.39 0 0 0-2.258-3.186M57.47 15.202c.387 0 .744.196.952.524l6.532 10.286c.347.544.53 1.174.53 1.821v8.864H61.17l-.452 2.262H42.903V16.333c0-.624.507-1.131 1.13-1.131zm-43.04-4.525h32.99v2.262H13.864zm2.326 4.525h24.097a3.4 3.4 0 0 0-.208 1.131V38.96H12.633zm-6.727 26.02h50.239l-1.355 6.788h-1.426c-1.565-2.7-4.475-4.525-7.81-4.525s-6.247 1.824-7.811 4.525H30.39c-1.564-2.7-4.475-4.525-7.81-4.525s-6.246 1.824-7.811 4.525H9.181zM6.774 54.798v-4.525h7.071a9 9 0 0 0-.297 2.262c0 .783.11 1.538.297 2.263zm15.807 4.525c-3.736 0-6.775-3.044-6.775-6.788 0-3.743 3.039-6.788 6.775-6.788s6.774 3.045 6.774 6.788-3.038 6.788-6.774 6.788m8.735-4.525c.187-.725.297-1.48.297-2.263s-.11-1.537-.297-2.262h9.627a9 9 0 0 0-.298 2.262c0 .783.11 1.538.297 2.263zm18.361 4.525c-3.736 0-6.774-3.044-6.774-6.788 0-3.743 3.038-6.788 6.774-6.788s6.775 3.045 6.775 6.788-3.038 6.788-6.775 6.788m14.893-4.525h-6.159c.189-.725.299-1.48.299-2.263s-.11-1.537-.297-2.262h2.351l2.258-11.314h3.59c.59 0 1.076.454 1.126 1.032z" />
    <path
        d="m63.226 27.322-6.149-9.857H45.161v14.707h18.065zm-2.258 2.587H47.419V19.728h8.407l5.142 8.243zM45.161 34.435h6.774v2.262h-6.774zM0 17.465h2.258v2.262H0zM0 24.252h2.258v2.263H0zM0 31.04h2.258v2.263H0z" />
</svg>
